X: 16
T:Midnight on the 
R:
C:Luke Thomasson
Z:from The 
Z:Alf 
L:1/8
M:3/4
K:D
A, DE|: F4 F2| F4 FE|F2 A3B|AF D2 D/2E3/2|
F2 d2 B2| A3D ED|FB AF ED|[1 D3A, DE:|[2 D3A Bc|
d4-d d|dc BA Bc|d3B AF|D4 d2|
e4 ef|e2 d2 e2| f3a fe|dc BA Bc|
d4 de|d2 c2 B2| A3B AG|FE DA, DE|
F2 d2 B2| A3D ED|FB AF ED|[1 D3A Bc:|[2 D6|]
